resources/svg/copy.svg

<svg viewBox="0 0 24 24"><path fill="none" stroke="currentColor" stroke-width="2" d="M9 15h8h-8zm0-4h10H9zm0-4h4h-4zm7-6v6h6M6 5H2v18h16v-4m4 0H6V1h11l5 5v13h0z"/></svg>

<svg xmlns="http://www.w3.org/2000/svg" viewBox="0 0 24 24" fill="currentColor"><path fill="none" stroke="currentColor" stroke-width="2" d="M9,15 L17,15 L9,15 Z M9,11 L19,11 L9,11 Z M9,7 L13,7 L9,7 Z M16,1 L16,7 L22,7 M6,5 L2,5 L2,23 L18,23 L18,19 M22,19 L6,19 L6,1 L17,1 L22,6 L22,19 L22,19 Z"/></svg>
